X:895
T: Volunteer
T: Deont\'anach (An)
S: B.Breathnach: "Ceol Rince na hEireann" II/268
Z: B.Black
L: 1/8
M: 4/4
R: reel
K: G
GE|DEGc BAGB|AGEF G2 AB|c2 cB cBAG|E2 ED E2 GE|
DEGc BAGB|AGEF G2 AB|cded BGAF|(3DDD DB, D2 :|
Bc|dedB cdcA|BGAF GABc|(3dcB cA BGAF|E2 ED E2 Bc|
dedB cdcA|BGAF GABc|(3dcB cA BGAF|(3DDD DB, D2 :|

